!!!!SEGMENT: pl-lzu--m-15111--001-023_noskowski-zygmunt--spiewnik-dla-dzieci-op-34-23-zielone-swiatki.krn
!!!cenid: 18xx:4720
!!!COM: Noskowski, Zygmunt
!!!COM-rismID: pe106604
!!!CDT: 1846/05/02-1909/07/23
!!!CNT: Polish
!!!GTL: Śpiewnik dla dzieci, op. 34
!!!OTL: 23. Zielone Świątki
!!!OMV: 023
!!!PDT: 1890
!!!AGN: Secular; Song; Children
!!!YEC: Copyright 2022 Narodowy Instytut Fryderyka Chopina (https://polishscores.org)
!!!YEM: License CC-BY-4.0 (https://creativecommons.org/licenses/by/4.0)
!!!SMS-siglum: PL-LŹu
!!!SMS-shelfmark: M 15111
!!!SMS-variant:
!!!SMS-altvar:
!!!SMS-shelfwork: 001-023 G
!!!NIFC-rismSourceID: 1001234040
!!!NIFC-rismChildID: 1001234040
!!!NIFC-islandoraID: pl-lzu:5455
!!!URL-pdf-islandora: https://repozytorium.nifc.pl/islandora/object/pl-lzu%3A5455/datastream/PDF/view
!!!URL-scan: https://polish.musicsources.pl/pl/lokalizacje/galeria/druki-muzyczne/23228/30 @EN{Scan on Polish Music Sources Website} @PL{Skany w portalu Dziedzictwo Muzyki Polskiej w otwartym dostępie}
!!!IIIF:
!!!ONB-nifc:
!!!AIN: 1 piano 1 vox
!!!key: A
!!!OMD: Alla Pollaca.
**kern	**kern	**dynam	**kern	**text	**text	**dynam
*part2	*part2	*part2	*part1	*part1	*part1	*part1
*staff3	*staff2	*staff2,3	*staff1	*staff1	*staff1	*staff1
*I"[Piano]	*I"[Piano]	*	*I"[Voice]	*	*	*
*I'pf	*I'pf	*	*I'V	*	*	*
*Ipiano	*Ipiano	*	*Ivox	*	*	*
*ICklav	*ICklav	*	*ICvox	*	*	*
*IGacomp	*IGacomp	*	*IGsolo	*	*	*
*>[A,A]	*>[A,A]	*>[A,A]	*>[A,A]	*>[A,A]	*>[A,A]	*>[A,A]
*>A	*>A	*>A	*>A	*>A	*>A	*>A
*clefF4	*clefG2	*	*clefG2	*	*	*
*k[f#c#g#]	*k[f#c#g#]	*	*k[f#c#g#]	*	*	*
*A:	*A:	*	*A:	*	*	*
*M3/4	*M3/4	*	*M3/4	*	*	*
=1	=1	=1	=1	=1	=1	=1
!	!LO:TX:a:i:t=Tempo Poloneza.	!	!	!	!	!
8AA\L	4.e/	f	2.r	.	.	.
16E\L 16A	.	.	.	.	.	.
16E\JJ 16A	.	.	.	.	.	.
8E\L 8A	.	.	.	.	.	.
8E\J 8A	(16c#/LL	.	.	.	.	.
.	16B/JJ	.	.	.	.	.
8F#\L	8A/L)	.	.	.	.	.
8D\J 8A	8f#'/J	.	.	.	.	.
=2	=2	=2	=2	=2	=2	=2
8AA\L	(24e/LL	.	2.r	.	.	.
.	24f#/	.	.	.	.	.
.	24e/JJ)	.	.	.	.	.
8E\J 8A	16c#'/LL	.	.	.	.	.
.	16B'/JJ	.	.	.	.	.
8C#/L 8E	4.A/	.	.	.	.	.
8C#/J 8E	.	.	.	.	.	.
8C#/ 8E	.	.	.	.	.	.
8r	16A/LL	.	.	.	.	.
.	16B/JJ	.	.	.	.	.
=3	=3	=3	=3	=3	=3	=3
8AA\L	8c#/L	.	2.r	.	.	.
8E\J 8A	(16c#/L	.	.	.	.	.
.	16d/JJ	.	.	.	.	.
8C#\L	8e/L)	.	.	.	.	.
8E\J 8A	(16f#/L	.	.	.	.	.
.	16g#/JJ	.	.	.	.	.
8AA\L	24a/LL	.	.	.	.	.
.	24b/	.	.	.	.	.
.	24a/JJ	.	.	.	.	.
8E\J 8A	16g#/LL	.	.	.	.	.
.	16a/JJ)	.	.	.	.	.
=4	=4	=4	=4	=4	=4	=4
8GG#\L	(16a#X/LL	.	2.r	.	.	.
.	16cc#/	.	.	.	.	.
8E\J 8B	16b/	.	.	.	.	.
.	16f#/JJ	.	.	.	.	.
8EE/	8an/L)	.	.	.	.	.
4E\ 4d	(24g#/L	.	.	.	.	.
.	24a/	.	.	.	.	.
.	24g#/JJ)	.	.	.	.	.
.	8f#/L	.	.	.	.	.
8E\ 8d	8e/J	.	.	.	.	.
!!LO:LB:g=original
=5	=5	=5	=5	=5	=5	=5
*	*	*	*	*v:1	*v:2	*
!	!	!LO:DY:rj	!	!	!	!LO:DY:rj
8AA\L	(8.d#X/L	mf	8.d#X/	Na-	Ma-	mf
8E\J 8c#	.	.	.	.	.	.
.	16e/Jk)	.	16e/	-sza	-ju,	.
8AA\L	4f#/	.	4f#/	i-	ma-	.
16F#\L 16d	.	.	.	.	.	.
16F#\JJ 16d	.	.	.	.	.	.
8E\L 8d	4g#/	.	4g#/	-zba	-ju,	.
8E\J 8d	.	.	.	.	.	.
=6	=6	=6	=6	=6	=6	=6
8AA\L	4.b/	.	4.b/	u-	świe-	.
16E\L 16c#	.	.	.	.	.	.
16E\JJ 16c#	.	.	.	.	.	.
8E\L 8c#	.	.	.	.	.	.
8E\J 8c#	(8a/L	.	8a/	-ma-	-ży	.
8E\ 8c#	8cc#/	.	8cc#\	-jo-	ga-	.
8r	8a/J)	.	8a,/	-na,	-ju,	.
=7	=7	=7	=7	=7	=7	=7
8AA\L	(8.g#/L	.	8.g#/	Ta-	Pach-	.
16F#\L 16d	.	<	.	.	.	<
16F#\JJ 16d	16f#/Jk)	.	16f#/	-ta-	-niesz	.
8F#\L 8d	4a/	.	4a/	-ra-	ty	.
8F#\ 8d	.	.	.	.	.	.
8E\ 8d	4b/	[	4b/	-kiem	dziś	[
8E\J 8d	.	.	.	.	.	.
!!LO:LB:g=original
=8	=8	=8	=8	=8	=8	=8
*	*	*	*	*v:1	*v:2	*
8AA\L	4dd\	f	4.dd\	ob-	w ca-	.
16E\L 16c#	.	.	.	.	.	.
16E\JJ 16c#	.	.	.	.	.	.
8E\L 8c#	8ryy	.	.	.	.	.
8A\J 8e	(8cc#\L	.	8cc#\	-sta-	-łym	.
8E\ 8c#	8ee\	.	8ee\	-wio-	kra-	.
8r	8cc#\J)	.	8cc#,\	-na,	-ju,	.
=9	=9	=9	=9	=9	=9	=9
8EE\L	(8b/L	.	8b/	Ta-	Nio-	.
8E\J 8G# 8d	8e/J)	>	8e/	-ta-	-są	>
8AA\L	4cc#\	.	4cc#\	-ra-	chłop-	.
16E\L 16A 16c#	.	.	.	.	.	.
16E\JJ 16A 16c#	.	.	.	.	.	.
8E\ 8A 8c#	(8b/L	]	(8b/L	-kiem,	-cy	]
8r	8a/J)	.	8a/J)	.	.	.
=10	=10	=10	=10	=10	=10	=10
8CC#\L	(8g#/L	.	8g#/	wo-	ga-	.
8C#\J 8G# 8c#	8c#/J)	.	8c#/	-dną	-łą-	.
8FF#\L	4a/	.	4a/	trzci-	-zecz-	.
16C#\L 16F# 16A	.	.	.	.	.	.
16C#\JJ 16F# 16A	.	.	.	.	.	.
8C#\ 8F# 8A	(8g#/L	.	(8g#/L	-ną	-ki,	.
8r	8f#/J)	.	8f#,/J)	.	.	.
!!LO:PB:g=original
=11	=11	=11	=11	=11	=11	=11
*	*	*	*	*v:1	*v:2	*
*	*^	*	*	*	*	*
!	!	!	!	!	!	!	!LO:DY:rj
8AA\L	(>8e#X/L	4ryy	.	8e#X/	I	Wi-	p
8C#\J 8F# 8A	8f#/J	.	<	8f#/	cze-	-ją	<
8FF#\L	8g#/L	4d\	.	8g#/	-rem-	wian-	.
8D\J 8A	8f#/J	.	.	8f#/	-chą,	-ki	.
8BBB\L	8b/L	4d#X\	.	8b/	i	pa-	.
8BB\J 8D#X 8A	8a/J)	.	[	8a/	ka-	-nie-	[
*	*v	*v	*	*	*	*	*
=12	=12	=12	=12	=12	=12	=12
*	*	*	*^	*	*	*
8EE\L	4e/ 4g# 4cc#	.	4cc#/	2ryy	-li-	-ne-	.
16E\L 16G# 16c#	.	.	.	.	.	.	.
16E\JJ 16G# 16c#	.	.	.	.	.	.	.
8E\L 8G# 8B	4e/ 4g# 4cc#	.	4b/	.	-ną,	-czki,	.
8E\J 8G# 8B	.	.	.	.	.	.	.
8E\ 8G# 8B	8r	.	8r	8ryy	.	.	.
!	!	!	!LO:TX:a:i:t=Chór.	!	!	!	!LO:DY:rj
8r	8e/	.	8e/	8e\	Zie-	Zie-	f
*	*	*	*v	*v	*	*	*
=13	=13	=13	=13	=13	=13	=13
!	!	!LO:DY:rj	!	!	!	!
8EE\L	4.b\ 4.dd	f	4.b\ 4.dd	-lo-	-lo-	.
16E\L 16G# 16d	.	.	.	.	.	.
16E\JJ 16G# 16d	.	.	.	.	.	.
8E\L 8G# 8d	.	.	.	.	.	.
8E\J 8G# 8d	8a\ 8cc#	.	8a\ 8cc#	-ne	-ne	.
8E\ 8G# 8d	8e/L 8b	.	8e/ 8b	Świę-	Świę-	.
8r	8d/J 8e	.	8d/ 8e	-ta.	-ta.	.
!!LO:LB:g=original
=14	=14	=14	=14	=14	=14	=14
*	*	*	*	*v:1. 2. 3.	*	*
*	*	*	*^	*	*	*
8AA\L	8.c#/L 8.a	.	8.c#/ 8.a	2ryy	La,	.	.
8E\J 8A 8c#	.	.	.	.	.	.	.
.	16e/Jk 16b	.	16e/ 16b	.	la	.	.
8E\L 8A 8c#	4a\ 4cc#	.	4a\ 4cc#	.	la!	.	.
8E\J 8A 8c#	.	.	.	.	.	.	.
8E\ 8A 8c#	8r	.	8r	8ryy	.	.	.
8r	8e/	.	8e/	8e\	Zie-	.	.
*	*	*	*v	*v	*	*	*
=15	=15	=15	=15	=15	=15	=15
8EE\L	4.d/ 4.g#	.	4.d/ 4.g#	-lo-	.	.
16E\L 16B	.	.	.	.	.	.
16E\JJ 16B	.	.	.	.	.	.
8E\L 8B	.	.	.	.	.	.
8E\ 8B	8d/L 8f#	.	8d/ 8f#	-ne	.	.
8E\ 8B	8d/ 8e	.	8d/ 8e	Świę-	.	.
8E\J 8G#	8d/J 8b	.	8d/ 8b	-ta.	.	.
=16	=16	=16	=16	=16	=16	=16
8AA/L 8A	8c#/L 8a	.	8c#/ 8a	La,	.	.
8EE/J 8E	(16e/L 16cc#	.	(16e/LL 16cc#	la,	.	.
.	16d/JJ) 16b	.	16d/JJ) 16b	.	.	.
4EE^/ 4E	4d^/ 4e 4b	.	4d^/ 4b	la,	.	.
8AA/ 8E	8c#/ 8e 8a	.	8c#/ 8a	la!	.	.
8r	8r	.	8r	.	.	.
=:|!	=:|!	=:|!	=:|!	=:|!	=:|!	=:|!
*-	*-	*-	*-	*-	*-	*-
!!!system-decoration: p1{p2}
!!!RDF**kern: > = above
!!!RDF**kern: < = below
!!!ENC: Andrzej Gręziak
!!!END: 2025-03-05
!!!ENC: Marta Lawrence
!!!END: 2025-03-21
